X:0205
M:6/8
L:1/8
Q:3/8=120
K:G
d|d^cd (ef)g|faf e2g| fed   Ad^c| d3       d2:|
d|afd   afd |c2c B2c| dgd   dgd | c2c      B2
  G2G   G2B |d3  g3 |dBG    A2B | E2F      G2A|B2g BcA|G3- G2:|

